src/images_karasa_jaga_svg/cmd/sc_wraptext.svg

<svg height="16" width="16" xmlns="http://www.w3.org/2000/svg" xmlns:xlink="http://www.w3.org/1999/xlink"><radialGradient id="a" cx="103.33578" cy="81.051842" gradientTransform="matrix(.85003403 .01226892 -.04632464 3.2095359 27.915774 -157.40663)" gradientUnits="userSpaceOnUse" r="22.436539"><stop offset="0" stop-color="#5875a0"/><stop offset="1" stop-color="#6a88b5"/></radialGradient><filter id="b"><feGaussianBlur stdDeviation="2.0786429"/></filter><radialGradient id="c" cx="108" cy="128.54001" gradientTransform="matrix(.96492761 0 0 .96460465 -1.636086 11.875114)" gradientUnits="userSpaceOnUse" r="139.55859"><stop offset="0" stop-color="#b7b8b9"/><stop offset=".18851049" stop-color="#ececec"/><stop offset=".25718147" stop-color="#fafafa"/><stop offset=".30111277" stop-color="#fff"/><stop offset=".5313" stop-color="#fafafa"/><stop offset=".8449" stop-color="#ebecec"/><stop offset="1" stop-color="#e1e2e3"/></radialGradient><radialGradient id="d" cx="103.33578" cy="86.036469" gradientTransform="matrix(-.00000016 3.5656127 -3.2098702 -.00000009 372.16591 -264.45536)" gradientUnits="userSpaceOnUse" r="22.436539"><stop offset="0" stop-color="#9abcee"/><stop offset="1" stop-color="#092042"/></radialGradient><linearGradient id="e" gradientTransform="matrix(-1 0 0 1 216 8.53907)" gradientUnits="userSpaceOnUse" x1="112" x2="104" y1="103.46093" y2="16"><stop offset="0" stop-color="#bfe7ff"/><stop offset="1" stop-color="#bff9ff" stop-opacity="0"/></linearGradient><g transform="scale(.125)"><path d="m6 6-.013668 121.05794h119.999998l.01367-121.05794z" filter="url(#b)" opacity=".758364" transform="matrix(.96492763 0 0 .96492763 .293768 .293073)"/><path d="m8.0131886 8.0124942-.0131886 111.9875058h112l-.0684-.81415.0132-111.1733558z" fill="#fff" stroke-width=".964928"/><path d="m16.697537 15.731915c-.531675 0-.964927.433432-.964927.964928v93.597977h95.2866c1.12141.0343 1.20616-1.54398 1.20616-1.77908v-91.818897c0-.531496-.43229-.964928-.96492-.964928z" fill="url(#c)" stroke-width=".964928"/><g fill="#404040" fill-opacity=".839216"><path d="m24 32h80v8h-80z"/><path d="m24 56h64v8h-64z"/><path d="m24 80h40v8h-40z"/></g><g fill-rule="evenodd"><path d="m96 47.998047a8.0019989 8.0019989 0 0 0 -8.001953 8.001953v8a8.0019989 8.0019989 0 0 0 8.001953 8.001953h7.99805v15.996094h-13.326175l1.480469-6.205078a8.0019989 8.0019989 0 0 0 -12.449219-8.355469l-27.998047 20.099609a8.0019989 8.0019989 0 0 0 -.04687 12.966801l27.476563 20.02343a8.0019989 8.0019989 0 0 0 12.49414-8.33007l-1.484375-6.19532h29.855464a8.0019989 8.0019989 0 0 0 8.00195-8.00195v-8-32-8a8.0019989 8.0019989 0 0 0 -8.00195-8.001953z" fill="#fff" fill-opacity=".913725" transform="translate(-8)"/><path d="m96 47.998047a8.0019989 8.0019989 0 0 0 -8.001953 8.001953v8a8.0019989 8.0019989 0 0 0 8.001953 8.001953h7.99805v15.996094h-13.326175l1.480469-6.205078a8.0019989 8.0019989 0 0 0 -12.449219-8.355469l-27.998047 20.099609a8.0019989 8.0019989 0 0 0 -.04687 12.966801l27.476563 20.02343a8.0019989 8.0019989 0 0 0 12.49414-8.33007l-1.484375-6.19532h29.855464a8.0019989 8.0019989 0 0 0 8.00195-8.00195v-8-32-8a8.0019989 8.0019989 0 0 0 -8.00195-8.001953z" fill="url(#a)"/><path d="m96 56v8h16v32h-31.460938l3.830079-16.0625-27.998047 20.09961 27.476562 20.02344-3.847656-16.06055h40v-8-32-8z" fill="url(#d)"/><path d="m96 56v8h16v26.435547l8-2.048828v-24.386719-8zm-11.630859 23.9375-27.998047 20.09961 4.71289 3.43359 29.183594-7.4707h-9.728516z" fill="url(#e)"/></g></g></svg>

<?xml version="1.0" encoding="UTF-8" standalone="no"?>
<svg
   xmlns:dc="http://purl.org/dc/elements/1.1/"
   xmlns:cc="http://creativecommons.org/ns#"
   xmlns:rdf="http://www.w3.org/1999/02/22-rdf-syntax-ns#"
   xmlns:svg="http://www.w3.org/2000/svg"
   xmlns="http://www.w3.org/2000/svg"
   xmlns:xlink="http://www.w3.org/1999/xlink"
   xmlns:sodipodi="http://sodipodi.sourceforge.net/DTD/sodipodi-0.dtd"
   xmlns:inkscape="http://www.inkscape.org/namespaces/inkscape"
   height="128"
   width="128"
   version="1.1"
   id="svg61"
   sodipodi:docname="sc_wraptext.svg"
   inkscape:export-filename="/home/rizmut/Dokumen/Rizmut/Github/libreoffice-style-karasa-jaga/build/images_karasa_jaga/cmd/sc_wraptext.png"
   inkscape:export-xdpi="12"
   inkscape:export-ydpi="12"
   inkscape:version="0.92.3 (unknown)">
  <metadata
     id="metadata67">
    <rdf:RDF>
      <cc:Work
         rdf:about="">
        <dc:format>image/svg+xml</dc:format>
        <dc:type
           rdf:resource="http://purl.org/dc/dcmitype/StillImage" />
        <dc:title />
      </cc:Work>
    </rdf:RDF>
  </metadata>
  <defs
     id="defs65">
    <radialGradient
       inkscape:collect="always"
       xlink:href="#e"
       id="radialGradient2327"
       gradientUnits="userSpaceOnUse"
       gradientTransform="matrix(0.85003403,0.01226892,-0.04632464,3.2095359,27.915774,-157.40663)"
       cx="103.33578"
       cy="81.051842"
       fx="103.33578"
       fy="81.051842"
       r="22.436539" />
  </defs>
  <sodipodi:namedview
     pagecolor="#ffffff"
     bordercolor="#666666"
     borderopacity="1"
     objecttolerance="10"
     gridtolerance="10"
     guidetolerance="10"
     inkscape:pageopacity="0"
     inkscape:pageshadow="2"
     inkscape:window-width="1280"
     inkscape:window-height="738"
     id="namedview63"
     showgrid="true"
     inkscape:zoom="1.3037282"
     inkscape:cx="-17.817788"
     inkscape:cy="81.886259"
     inkscape:window-x="0"
     inkscape:window-y="0"
     inkscape:window-maximized="1"
     inkscape:current-layer="g59"
     inkscape:snap-global="true"
     showguides="false">
    <inkscape:grid
       type="xygrid"
       id="grid877"
       spacingx="8"
       spacingy="8"
       empspacing="1" />
  </sodipodi:namedview>
  <filter
     id="a">
    <feGaussianBlur
       stdDeviation="2.0786429"
       id="feGaussianBlur2" />
  </filter>
  <radialGradient
     id="b"
     cx="108"
     cy="128.54001"
     gradientTransform="matrix(.96492761 0 0 .96460465 -1.636086 11.875114)"
     gradientUnits="userSpaceOnUse"
     r="139.55859">
    <stop
       offset="0"
       stop-color="#b7b8b9"
       id="stop5" />
    <stop
       offset=".18851049"
       stop-color="#ececec"
       id="stop7" />
    <stop
       offset=".25718147"
       stop-color="#fafafa"
       id="stop9" />
    <stop
       offset=".30111277"
       stop-color="#fff"
       id="stop11" />
    <stop
       offset=".5313"
       stop-color="#fafafa"
       id="stop13" />
    <stop
       offset=".8449"
       stop-color="#ebecec"
       id="stop15" />
    <stop
       offset="1"
       stop-color="#e1e2e3"
       id="stop17" />
  </radialGradient>
  <radialGradient
     id="c"
     cx="103.33578"
     cy="86.036469"
     gradientTransform="matrix(-1.5843288e-7,3.5656127,-3.2098702,-8.86611e-8,372.16591,-264.45536)"
     gradientUnits="userSpaceOnUse"
     r="22.436539"
     fx="103.33578"
     fy="86.036469">
    <stop
       offset="0"
       stop-color="#9abcee"
       id="stop20" />
    <stop
       offset="1"
       stop-color="#092042"
       id="stop22" />
  </radialGradient>
  <linearGradient
     id="d"
     gradientUnits="userSpaceOnUse"
     x1="112"
     x2="104"
     y1="103.46093"
     y2="16"
     gradientTransform="matrix(-1,0,0,1,216,8.53907)">
    <stop
       offset="0"
       stop-color="#bfe7ff"
       id="stop25" />
    <stop
       offset="1"
       stop-color="#bff9ff"
       stop-opacity="0"
       id="stop27" />
  </linearGradient>
  <linearGradient
     id="e"
     gradientUnits="userSpaceOnUse"
     x1="83.896461"
     x2="124.05045"
     y1="82.185677"
     y2="82.185677"
     gradientTransform="translate(-72)">
    <stop
       offset="0"
       stop-color="#001331"
       id="stop30"
       style="stop-color:#5875a0;stop-opacity:1" />
    <stop
       offset="1"
       stop-color="#293e63"
       id="stop32"
       style="stop-color:#6a88b5;stop-opacity:1" />
  </linearGradient>
  <path
     d="m6 6-.013668 121.05794h119.999998l.01367-121.05794z"
     filter="url(#a)"
     opacity=".758364"
     transform="matrix(.96492763 0 0 .96492763 .293768 .293073)"
     id="path35" />
  <path
     d="m8.0131886 8.0124942-.0131886 111.9875058h112l-.0684-.81415.0132-111.1733558z"
     fill="#fff"
     stroke-width=".964928"
     id="path37" />
  <path
     d="m16.697537 15.731915c-.531675 0-.964927.433432-.964927.964928v93.597977h95.2866c1.12141.0343 1.20616-1.54398 1.20616-1.77908v-91.818897c0-.531496-.43229-.964928-.96492-.964928z"
     id="path39"
     stroke-width=".964928"
     fill="url(#b)" />
  <g
     id="g2360">
    <rect
       y="32"
       x="24"
       height="8"
       width="80"
       id="rect2333"
       style="opacity:1;fill:#404040;fill-opacity:0.83921569;stroke:none;stroke-width:15;stroke-linecap:round;stroke-linejoin:round;stroke-miterlimit:4;stroke-dasharray:none;stroke-dashoffset:0;stroke-opacity:1" />
    <rect
       y="56"
       x="24"
       height="8"
       width="64"
       id="rect2335"
       style="opacity:1;fill:#404040;fill-opacity:0.83921569;stroke:none;stroke-width:15;stroke-linecap:round;stroke-linejoin:round;stroke-miterlimit:4;stroke-dasharray:none;stroke-dashoffset:0;stroke-opacity:1" />
    <rect
       y="80"
       x="24"
       height="8"
       width="40"
       id="rect2337"
       style="opacity:1;fill:#404040;fill-opacity:0.83921569;stroke:none;stroke-width:15;stroke-linecap:round;stroke-linejoin:round;stroke-miterlimit:4;stroke-dasharray:none;stroke-dashoffset:0;stroke-opacity:1" />
  </g>
  <g
     id="g59"
     transform="rotate(-90,108,92)">
    <path
       transform="rotate(90,112,88)"
       d="M 96,47.998047 A 8.0019989,8.0019989 0 0 0 87.998047,56 v 8 A 8.0019989,8.0019989 0 0 0 96,72.001953 h 7.99805 V 87.998047 H 90.671875 l 1.480469,-6.205078 A 8.0019989,8.0019989 0 0 0 79.703125,73.4375 L 51.705078,93.537109 a 8.0019989,8.0019989 0 0 0 -0.04687,12.966801 l 27.476563,20.02343 a 8.0019989,8.0019989 0 0 0 12.49414,-8.33007 l -1.484375,-6.19532 H 120 A 8.0019989,8.0019989 0 0 0 128.00195,104 V 96 64 56 A 8.0019989,8.0019989 0 0 0 120,47.998047 Z"
       id="path2353"
       style="fill:#ffffff;fill-opacity:0.9137255;fill-rule:evenodd"
       inkscape:original="M 96 56 L 96 64 L 112 64 L 112 96 L 80.539062 96 L 84.369141 79.9375 L 56.371094 100.03711 L 83.847656 120.06055 L 80 104 L 120 104 L 120 96 L 120 64 L 120 56 L 96 56 z "
       inkscape:radius="8.0011988"
       sodipodi:type="inkscape:offset" />
    <path
       sodipodi:type="inkscape:offset"
       inkscape:radius="8.0011988"
       inkscape:original="M 96 56 L 96 64 L 112 64 L 112 96 L 80.539062 96 L 84.369141 79.9375 L 56.371094 100.03711 L 83.847656 120.06055 L 80 104 L 120 104 L 120 96 L 120 64 L 120 56 L 96 56 z "
       style="fill:url(#radialGradient2327);fill-rule:evenodd;fill-opacity:1;opacity:1"
       id="path2325"
       d="M 96,47.998047 A 8.0019989,8.0019989 0 0 0 87.998047,56 v 8 A 8.0019989,8.0019989 0 0 0 96,72.001953 h 7.99805 V 87.998047 H 90.671875 l 1.480469,-6.205078 A 8.0019989,8.0019989 0 0 0 79.703125,73.4375 L 51.705078,93.537109 a 8.0019989,8.0019989 0 0 0 -0.04687,12.966801 l 27.476563,20.02343 a 8.0019989,8.0019989 0 0 0 12.49414,-8.33007 l -1.484375,-6.19532 H 120 A 8.0019989,8.0019989 0 0 0 128.00195,104 V 96 64 56 A 8.0019989,8.0019989 0 0 0 120,47.998047 Z"
       transform="rotate(90,108,92)" />
    <path
       style="fill:url(#c);fill-rule:evenodd"
       d="M 96 56 L 96 64 L 112 64 L 112 96 L 80.539062 96 L 84.369141 79.9375 L 56.371094 100.03711 L 83.847656 120.06055 L 80 104 L 120 104 L 120 96 L 120 64 L 120 56 L 96 56 z "
       id="path53"
       transform="rotate(90,108,92)" />
    <path
       style="fill:url(#d);fill-rule:evenodd"
       d="M 96 56 L 96 64 L 112 64 L 112 90.435547 L 120 88.386719 L 120 64 L 120 56 L 96 56 z M 84.369141 79.9375 L 56.371094 100.03711 L 61.083984 103.4707 L 90.267578 96 L 80.539062 96 L 84.369141 79.9375 z "
       transform="rotate(90,108,92)"
       id="path55" />
  </g>
</svg>
